lib/flags/m/570.svg

<svg xmlns="http://www.w3.org/2000/svg" fill="none" viewBox="0 0 20 15"><mask id="570_svg__a" width="20" height="15" x="0" y="0" mask-type="alpha" maskUnits="userSpaceOnUse"><path fill="#fff" d="M0 0H20V15H0z"/></mask><g mask="url(#570_svg__a)"><path fill="#2E42A5" fill-rule="evenodd" d="M0 0V15H20V0H0Z" clip-rule="evenodd"/><mask id="570_svg__b" width="20" height="15" x="0" y="0" mask-type="alpha" maskUnits="userSpaceOnUse"><path fill="#fff" fill-rule="evenodd" d="M0 0V15H20V0H0Z" clip-rule="evenodd"/></mask><g mask="url(#570_svg__b)"><path fill="#FECA00" fill-rule="evenodd" d="M0 10V15H20V10H0Z" clip-rule="evenodd"/><mask id="570_svg__c" width="20" height="10" x="0" y="0" mask-type="alpha" maskUnits="userSpaceOnUse"><path fill="#fff" d="M0 0H20V10H0z"/></mask><g mask="url(#570_svg__c)"><path fill="#fff" d="M-1.41388 9.45574L2.55032 10.3728L11.001 5.70347L11.8952 5.18058L19.9224 0.9833L21.8241 -0.342342L17.4743 -0.743505L10.4608 3.21275L5.39247 5.70347L-1.41388 9.45574Z"/><path fill="#F50100" d="M-1.06561 10.0118L1.06873 10.7119L21.0306 -0.508721H18.0337L-1.06561 10.0118Z"/><path fill="#fff" d="M21.4817 9.20687L21.6391 10.1506L17.4497 10.373L10.6958 6.41721L10.0591 6.63476L-2.55025 0.256777L2.65589 -0.745309L9.61587 3.09961L15.0605 5.7304L21.4817 9.20687Z"/><path fill="#F50100" d="M21.4962 9.7733L19.3618 10.4734L10.8619 5.66925L8.34183 5.1325L-2.03677 -0.335928H0.960089L11.3329 5.0027L14.0881 5.64633L21.4962 9.7733Z"/><path fill="#fff" d="M8.24313 -0.78125V-1.5625H7.46188V-0.78125H8.24313ZM8.24313 2.96875V3.75H9.02438V2.96875H8.24313ZM-0.78125 2.96875V2.1875H-1.5625V2.96875H-0.78125ZM-0.78125 7.03125H-1.5625V7.8125H-0.78125V7.03125ZM8.24313 7.03125H9.02438V6.25H8.24313V7.03125ZM8.24313 12.0312H7.46188V12.8125H8.24313V12.0312ZM11.7985 12.0312V12.8125H12.5797V12.0312H11.7985ZM11.7985 7.03125V6.25H11.0172V7.03125H11.7985ZM20.7812 7.03125V7.8125H21.5625V7.03125H20.7812ZM20.7812 2.96875H21.5625V2.1875H20.7812V2.96875ZM11.7985 2.96875H11.0172V3.75H11.7985V2.96875ZM11.7985 -0.78125H12.5797V-1.5625H11.7985V-0.78125ZM10.236 2.96875V3.75H11.0172V2.96875H10.236ZM10.236 0.78125H11.0172V0H10.236V0.78125ZM9.80563 0.78125V0H9.02438V0.78125H9.80563ZM9.80563 2.96875H9.02438V3.75H9.80563V2.96875ZM10.236 4.53125H11.0172V3.75H10.236V4.53125ZM9.80563 4.53125V3.75H9.02438V4.53125H9.80563ZM10.236 5.46875V6.25H11.0172V5.46875H10.236ZM9.80563 5.46875H9.02438V6.25H9.80563V5.46875ZM8.24313 4.53125H9.02438V3.75H8.24313V4.53125ZM0.78125 4.53125V3.75H0V4.53125H0.78125ZM0.78125 5.46875H0V6.25H0.78125V5.46875ZM8.24313 5.46875V6.25H9.02438V5.46875H8.24313ZM9.80563 7.03125V6.25H9.02438V7.03125H9.80563ZM9.80563 10.4688H9.02438V11.25H9.80563V10.4688ZM10.236 10.4688V11.25H11.0172V10.4688H10.236ZM10.236 7.03125H11.0172V6.25H10.236V7.03125ZM11.7985 4.53125V3.75H11.0172V4.53125H11.7985ZM11.7985 5.46875H11.0172V6.25H11.7985V5.46875ZM19.2188 4.53125H20V3.75H19.2188V4.53125ZM19.2188 5.46875V6.25H20V5.46875H19.2188ZM8.24313 0H9.02438V-1.5625H8.24313V0ZM9.02438 0V-0.78125H7.46188V0H9.02438ZM9.02438 2.96875V0H7.46188V2.96875H9.02438ZM0 3.75H8.24313V2.1875H0V3.75ZM-0.78125 3.75H0V2.1875H-0.78125V3.75ZM0 3.75V2.96875H-1.5625V3.75H0ZM0 6.25V3.75H-1.5625V6.25H0ZM0 7.03125V6.25H-1.5625V7.03125H0ZM0 6.25H-0.78125V7.8125H0V6.25ZM8.24313 6.25H0V7.8125H8.24313V6.25ZM9.02438 11.25V7.03125H7.46188V11.25H9.02438ZM9.02438 12.0312V11.25H7.46188V12.0312H9.02438ZM9.02438 11.25H8.24313V12.8125H9.02438V11.25ZM11.0172 11.25H9.02438V12.8125H11.0172V11.25ZM11.7985 11.25H11.0172V12.8125H11.7985V11.25ZM11.0172 11.25V12.0312H12.5797V11.25H11.0172ZM11.0172 7.03125V11.25H12.5797V7.03125H11.0172ZM20 6.25H11.7985V7.8125H20V6.25ZM20.7812 6.25H20V7.8125H20.7812V6.25ZM20 6.25V7.03125H21.5625V6.25H20ZM20 3.75V6.25H21.5625V3.75H20ZM20 2.96875V3.75H21.5625V2.96875H20ZM20 3.75H20.7812V2.1875H20V3.75ZM11.7985 3.75H20V2.1875H11.7985V3.75ZM11.0172 0V2.96875H12.5797V0H11.0172ZM11.0172 -0.78125V0H12.5797V-0.78125H11.0172ZM11.0172 0H11.7985V-1.5625H11.0172V0ZM9.02438 0H11.0172V-1.5625H9.02438V0ZM11.0172 2.96875V0.78125H9.45472V2.96875H11.0172ZM10.236 0H9.80563V1.5625H10.236V0ZM9.02438 0.78125V2.96875H10.5869V0.78125H9.02438ZM9.80563 3.75H10.236V2.1875H9.80563V3.75ZM10.236 3.75H9.80563V5.3125H10.236V3.75ZM11.0172 5.46875V4.53125H9.45472V5.46875H11.0172ZM9.80563 6.25H10.236V4.6875H9.80563V6.25ZM9.02438 4.53125V5.46875H10.5869V4.53125H9.02438ZM8.24313 3.75H0.78125V5.3125H8.24313V3.75ZM0 4.53125V5.46875H1.5625V4.53125H0ZM0.78125 6.25H8.24313V4.6875H0.78125V6.25ZM9.02438 5.46875V4.53125H7.46188V5.46875H9.02438ZM9.02438 7.03125V10.4688H10.5869V7.03125H9.02438ZM9.80563 11.25H10.236V9.6875H9.80563V11.25ZM11.0172 10.4688V7.03125H9.45472V10.4688H11.0172ZM10.236 6.25H9.80563V7.8125H10.236V6.25ZM11.0172 4.53125V5.46875H12.5797V4.53125H11.0172ZM19.2188 3.75H11.7985V5.3125H19.2188V3.75ZM20 5.46875V4.53125H18.4375V5.46875H20ZM11.7985 6.25H19.2188V4.6875H11.7985V6.25Z"/><path fill="#F50100" fill-rule="evenodd" d="M11.0577 -0.833252H8.94231V3.75008H0V6.25008H8.94231V12.0834H11.0577V6.25008H21.25V3.75008H11.0577V-0.833252Z" clip-rule="evenodd"/></g><path fill="#2E42A5" fill-rule="evenodd" d="M10.0313 6.625C10.9805 6.625 11.75 5.85549 11.75 4.90625C11.75 3.95701 10.9805 3.1875 10.0313 3.1875C9.08204 3.1875 8.31253 3.95701 8.31253 4.90625C8.31253 5.85549 9.08204 6.625 10.0313 6.625Z" clip-rule="evenodd"/><path fill="#FECA00" fill-rule="evenodd" d="M10.0625 5.43206 9.25133 5.99652 9.5375 5.05063 8.75 4.45359 9.73803 4.43345 10.0625 3.5 10.387 4.43345 11.375 4.45359 10.5875 5.05063 10.8737 5.99652 10.0625 5.43206zM4.4375 5.36005 3.76153 5.83044 4 5.04219 3.34375 4.54466 4.16711 4.52788 4.4375 3.75 4.70789 4.52788 5.53125 4.54466 4.875 5.04219 5.11347 5.83044 4.4375 5.36005zM15.6875 5.36005 15.0115 5.83044 15.25 5.04219 14.5938 4.54466 15.4171 4.52788 15.6875 3.75 15.9579 4.52788 16.7812 4.54466 16.125 5.04219 16.3635 5.83044 15.6875 5.36005zM10.0625 2.36005 9.38653 2.83044 9.625 2.04219 8.96875 1.54466 9.79211 1.52788 10.0625.75 10.3329 1.52788 11.1562 1.54466 10.5 2.04219 10.7385 2.83044 10.0625 2.36005zM10.0625 8.98505 9.38653 9.45544 9.625 8.66719 8.96875 8.16966 9.79211 8.15288 10.0625 7.375 10.3329 8.15288 11.1562 8.16966 10.5 8.66719 10.7385 9.45544 10.0625 8.98505z" clip-rule="evenodd"/></g></g></svg>

<svg xmlns="http://www.w3.org/2000/svg" fill="none" viewBox="0 0 20 15"><mask id="570_svg__a" width="20" height="15" x="0" y="0" maskUnits="userSpaceOnUse"><path fill="#fff" d="M0 0h20v15H0z"/></mask><g mask="url(#570_svg__a)"><path fill="#2E42A5" fill-rule="evenodd" d="M0 0v15h20V0H0z" clip-rule="evenodd"/><mask id="570_svg__b" width="20" height="15" x="0" y="0" maskUnits="userSpaceOnUse"><path fill="#fff" fill-rule="evenodd" d="M0 0v15h20V0H0z" clip-rule="evenodd"/></mask><g mask="url(#570_svg__b)"><path fill="#FECA00" fill-rule="evenodd" d="M0 10v5h20v-5H0z" clip-rule="evenodd"/><mask id="570_svg__c" width="20" height="10" x="0" y="0" maskUnits="userSpaceOnUse"><path fill="#fff" d="M0 0h20v10H0z"/></mask><g mask="url(#570_svg__c)"><path fill="#fff" d="M-1.414 9.456l3.964.917 8.451-4.67.894-.522L19.922.983l1.902-1.325-4.35-.401-7.013 3.956-5.069 2.49-6.806 3.753z"/><path fill="#F50100" d="M-1.066 10.012l2.135.7L21.03-.508h-2.997l-19.1 10.52z"/><path fill="#fff" d="M21.482 9.207l.157.943-4.19.223-6.753-3.956-.637.218L-2.55.257 2.657-.745l6.96 3.844L15.06 5.73l6.422 3.477z"/><path fill="#F50100" d="M21.496 9.773l-2.134.7-8.5-4.804-2.52-.537L-2.037-.336H.96l10.373 5.339 2.755.643 7.408 4.127z"/><path fill="#fff" d="M8.243-.781v-.781h-.781v.78h.781zm0 3.75v.781h.781v-.781h-.78zm-9.024 0v-.781h-.781v.78h.78zm0 4.062h-.781v.782h.78V7.03zm9.024 0h.781V6.25h-.78v.781zm0 5h-.781v.781h.781v-.78zm3.556 0v.781h.78v-.78h-.78zm0-5V6.25h-.782v.781h.782zm8.982 0v.782h.782V7.03h-.782zm0-4.062h.782v-.781h-.782v.78zm-8.982 0h-.782v.781h.782v-.781zm0-3.75h.78v-.781h-.78v.78zm-1.563 3.75v.781h.781v-.781h-.781zm0-2.188h.781V0h-.781v.781zm-.43 0V0h-.782v.781h.782zm0 2.188h-.782v.781h.782v-.781zm.43 1.562h.781V3.75h-.781v.781zm-.43 0V3.75h-.782v.781h.782zm.43.938v.781h.781v-.781h-.781zm-.43 0h-.782v.781h.782v-.781zM8.243 4.53h.781v-.78h-.78v.781zm-7.462 0v-.78H0v.781h.781zm0 .938H0v.781h.781v-.781zm7.462 0v.781h.781v-.781h-.78zM9.806 7.03v-.78h-.782v.781h.782zm0 3.438h-.782v.781h.782v-.781zm.43 0v.781h.781v-.781h-.781zm0-3.438h.781v-.78h-.781v.781zm1.563-2.5v-.78h-.782v.781h.782zm0 .938h-.782v.781h.782v-.781zm7.42-.938H20v-.78h-.781v.781zm0 .938v.781H20v-.781h-.781zM8.243 0h.781v-1.563h-.78V0zm.781 0v-.781H7.462V0h1.562zm0 2.969V0H7.462v2.969h1.562zM0 3.75h8.243V2.187H0V3.75zm-.781 0H0V2.187h-.781V3.75zm.781 0v-.781h-1.563v.781H0zm0 2.5v-2.5h-1.563v2.5H0zm0 .781V6.25h-1.563v.781H0zm0-.781h-.781v1.563H0V6.25zm8.243 0H0v1.563h8.243V6.25zm.781 5V7.031H7.462v4.219h1.562zm0 .781v-.781H7.462v.781h1.562zm0-.781h-.78v1.563h.78V11.25zm1.993 0H9.024v1.563h1.993V11.25zm.782 0h-.782v1.563h.782V11.25zm-.782 0v.781h1.563v-.781h-1.563zm0-4.219v4.219h1.563V7.031h-1.563zM20 6.25h-8.201v1.563H20V6.25zm.781 0H20v1.563h.781V6.25zm-.781 0v.781h1.563V6.25H20zm0-2.5v2.5h1.563v-2.5H20zm0-.781v.781h1.563v-.781H20zm0 .781h.781V2.187H20V3.75zm-8.201 0H20V2.187h-8.201V3.75zM11.017 0v2.969h1.563V0h-1.563zm0-.781V0h1.563v-.781h-1.563zm0 .781h.782v-1.563h-.782V0zM9.024 0h1.993v-1.563H9.024V0zm1.993 2.969V.78H9.455v2.19h1.562zM10.236 0h-.43v1.563h.43V0zM9.024.781V2.97h1.563V.78H9.024zm.782 2.969h.43V2.187h-.43V3.75zm.43 0h-.43v1.563h.43V3.75zm.781 1.719V4.53H9.455v.938h1.562zm-1.211.781h.43V4.687h-.43V6.25zm-.782-1.719v.938h1.563V4.53H9.024zm-.78-.781H.78v1.563h7.462V3.75zM0 4.531v.938h1.563V4.53H0zM.781 6.25h7.462V4.687H.781V6.25zm8.243-.781V4.53H7.462v.938h1.562zm0 1.562v3.438h1.563V7.03H9.024zm.782 4.219h.43V9.687h-.43v1.563zm1.211-.781V7.03H9.455v3.438h1.562zm-.781-4.219h-.43v1.563h.43V6.25zm.781-1.719v.938h1.563V4.53h-1.563zm8.202-.781h-7.42v1.563h7.42V3.75zM20 5.469V4.53h-1.563v.938H20zm-8.201.781h7.42V4.687h-7.42V6.25z"/><path fill="#F50100" fill-rule="evenodd" d="M11.058-.833H8.942V3.75H0v2.5h8.942v5.833h2.116V6.25H21.25v-2.5H11.058V-.833z" clip-rule="evenodd"/></g><path fill="#2E42A5" fill-rule="evenodd" d="M10.031 6.625a1.719 1.719 0 100-3.437 1.719 1.719 0 000 3.437z" clip-rule="evenodd"/><path fill="#FECA00" fill-rule="evenodd" d="M10.063 5.432l-.812.565.287-.946-.788-.597.988-.02.325-.934.324.933.988.02-.787.598.286.946-.812-.565zM4.438 5.36l-.676.47L4 5.042l-.656-.497.823-.017.27-.778.27.778.824.017-.656.497.238.788-.676-.47zm11.25 0l-.677.47.239-.788-.656-.497.823-.017.27-.778.27.778.824.017-.656.497.238.788-.675-.47zm-5.625-3l-.676.47.238-.788-.656-.497.823-.017.27-.778.27.778.824.017-.656.497.239.788-.677-.47zm0 6.625l-.676.47.238-.788-.656-.497.823-.017.27-.778.27.778.824.017-.656.497.239.788-.677-.47z" clip-rule="evenodd"/></g></g></svg>
